X:1
T:Title
%%score { ( 1 3 ) | ( 2 4 ) }
L:1/8
M:4/4
K:D
V:1 treble nm="Grand Piano"
V:3 treble 
V:2 bass 
V:4 bass 
V:1
 z4 z z/[Q:1/4=94] D/ F>G | A6 z2 | d6 z2 | G6 z2 | z z/ D/ D>D D>D F>G | z z/ F/ F>F F>d e>B | %6
 B6 z2 | d6 z2 | z z/ D/- D2- D3/2 z/ z2 | [Fd]2 [Fe]2 [Fd]3 [Fd] | [Fe]>[Fd] [FA]>[FA] [GB]4 | %11
 [GB]2 [Ac]2 [GB]3 [GB] | [FA]>[Fd] c>e [Fd]3 [Fd] | [Fd]2 [F^d]2 [Ge]3 [A=d] | B2 c2 [Fd]3 [Fd] | %15
 [Fc]>[FB] [FA]>[Fd] [Gc]>[CGB] [DFA]>[DGB] |[M:25/32] z2[K:bass] [CE]2 z2 z/4 |] %17
V:2
 z8 | z z/ [D,D]/ [D,C]>[D,B,] [D,B,]2 z2 | z z/ [D,D]/ [D,C]>[D,D] [D,A,]2 z2 | %3
 z z/ A,,/ A,,>A,, A,,>[K:treble]B A>G | F6[K:bass] z2 | z z/ [D,A,]/ [D,B,]>[D,A,] [D,D]2 z2 | %6
 z z/ [G,D]/ [G,C]>[G,D] [G,B,]2 z2 | z z/ [D,D]/ [D,C]>[D,B,] [D,A,]2 z2 | %8
 z z/ [D,B,]/ [D,A,]>[D,G,] [D,F,]2 z2 | [D,A,]2 [D,A,]2 [D,A,]3 [D,A,] | %10
 [D,A,]>[D,A,] [D,D]>[D,D] [G,D]4 | [G,D]2 [G,D]2 [G,D]3 [G,D] | %12
 [D,D]>[D,D][K:treble] [A,E]>[A,G][K:bass] [D,A,]3 [D,A,] | [D,A,]2 [B,,B,]2 [E,B,]3 [F,D] | %14
 [G,DG]2 [A,G]2[K:bass] [D,A,]3 [D,A,] | [D,A,]>[D,D] [D,D]>[D,A,] [D,B,]>D, D,>G, | %16
[M:25/32] .A,3 G, D,2- D,/4 |] %17
V:3
 x8 | z z/ F/ F>F F>A B>A | z z/ F/ F>F F>A E>F | z z/ [CE]/ E>[DE] [CE]2 z2 | x8 | A6 z2 | %6
 z z/ G/ G>G G>B d>B | z z/ F/ F>F F>F G>C | D2 C>B, A,2 z2 | x8 | x8 | x8 | x8 | x8 | x8 | x8 | %16
[M:25/32] [DF]2[K:bass] A, z [F,A,D]2- [F,A,D]/4 |] %17
V:4
 x8 | x8 | x8 | x11/2[K:treble] x5/2 | z z/[K:bass] D,/ [D,C]>[D,B,] [D,A,]2 z2 | x8 | x8 | x8 | %8
 x8 | x8 | x8 | x8 | x2[K:treble] x2[K:bass] x4 | x8 | x4[K:bass] x4 | x8 | %16
[M:25/32] z2 A,,2 z2 z/4 |] %17

